material/.icons/material/format-list-numbered-rtl.svg

<svg xmlns="http://www.w3.org/2000/svg" viewBox="0 0 24 24"><path d="M3 13v-2h14v2H3m0 6v-2h14v2H3M3 7V5h14v2H3m17 1V5h-1V4h2v4h-1m-1 9v-1h3v4h-3v-1h2v-.5h-1v-1h1V17h-2m2.25-7a.749.749 0 01.54 1.27L20.12 13H22v1h-3v-.92L21 11h-2v-1h2.25z"/></svg>

<?xml version="1.0" encoding="UTF-8"?><!DOCTYPE svg PUBLIC "-//W3C//DTD SVG 1.1//EN" "http://www.w3.org/Graphics/SVG/1.1/DTD/svg11.dtd"><svg xmlns="http://www.w3.org/2000/svg" xmlns:xlink="http://www.w3.org/1999/xlink" version="1.1" id="mdi-format-list-numbered-rtl" width="24" height="24" viewBox="0 0 24 24"><path d="M3,13V11H17V13H3M3,19V17H17V19H3M3,7V5H17V7H3M20,8V5H19V4H21V8H20M19,17V16H22V20H19V19H21V18.5H20V17.5H21V17H19M21.25,10C21.67,10 22,10.34 22,10.75C22,10.95 21.92,11.14 21.79,11.27L20.12,13H22V14H19V13.08L21,11H19V10H21.25Z" /></svg>
